img/new-access/fun-gobbler.svg

<svg width="71" height="72" viewBox="0 0 71 72" fill="none" xmlns="http://www.w3.org/2000/svg">
<path d="M37.6676 69.4716C37.1159 69.4716 36.5624 69.3973 36.021 69.2471L13.4689 62.9897C13.1055 62.8889 12.8929 62.5131 12.9938 62.1503C13.0947 61.7875 13.4716 61.5746 13.8344 61.6758L36.3864 67.9331C37.5291 68.25 38.742 68.133 39.8027 67.6033L66.2137 54.4132C67.0591 53.9909 67.5844 53.1421 67.5844 52.1978C67.5844 51.4874 67.2934 50.8341 66.7653 50.3584C66.2371 49.8829 65.5576 49.6614 64.8491 49.7343L41.0298 52.2007C40.6552 52.2379 40.3193 51.9672 40.2804 51.5927C40.2416 51.218 40.514 50.8829 40.889 50.8441L64.7083 48.3778C65.7901 48.2659 66.8726 48.6188 67.6797 49.3458C68.4869 50.0727 68.9499 51.1123 68.9499 52.1979C68.9499 53.6621 68.1354 54.9785 66.8245 55.6331L40.4136 68.8231C39.5523 69.253 38.6127 69.4716 37.6676 69.4716Z" fill="#C47A2D"/>
<path d="M35.7444 56.1933C35.2631 56.1933 34.7779 56.1344 34.2975 56.0144L24.4093 53.5452C24.0435 53.4539 23.8211 53.0836 23.9126 52.7184C24.0039 52.353 24.3743 52.1308 24.7404 52.2222L34.6285 54.6914C35.9958 55.0326 37.4173 54.7318 38.5285 53.8652C39.6395 52.9988 40.2767 51.6943 40.2767 50.2864C40.2767 48.1596 38.7656 46.2924 36.6835 45.8467L23.1585 42.9518C22.3243 42.7734 21.4553 42.8215 20.6459 43.0909L13.8676 45.3477C13.51 45.4672 13.1233 45.2738 13.0039 44.9165C12.8848 44.5591 13.0781 44.173 13.4358 44.054L20.2141 41.7972C21.2548 41.4508 22.3719 41.389 23.4445 41.6184L36.9697 44.5133C39.6771 45.0928 41.6422 47.5208 41.6422 50.2864C41.6422 52.1173 40.8137 53.8135 39.369 54.9403C38.3145 55.7627 37.0447 56.1933 35.7444 56.1933Z" fill="#C47A2D"/>
<path d="M13.6526 69.8304H2.72957C2.35258 69.8304 2.04688 69.5252 2.04688 69.1485V39.1448C2.04688 38.7681 2.35258 38.4629 2.72957 38.4629H13.6526C14.0296 38.4629 14.3353 38.7681 14.3353 39.1448V69.1485C14.3353 69.5252 14.0296 69.8304 13.6526 69.8304ZM3.41226 68.4666H12.97V39.8267H3.41226V68.4666Z" fill="#C47A2D"/>
<path d="M64.172 43.9157C63.9944 43.9157 63.8197 43.8464 63.6892 43.7159L57.0622 37.0967H42.3257C39.6907 37.0967 37.5469 34.9553 37.5469 32.3233V24.1405C37.5469 21.5085 39.6907 19.3672 42.3257 19.3672H64.1719C66.8069 19.3672 68.9507 21.5085 68.9507 24.1405V32.3233C68.9507 34.7239 67.1674 36.7162 64.8546 37.0481V43.2338C64.8546 43.5095 64.6883 43.7583 64.4331 43.8637C64.3487 43.8988 64.2601 43.9157 64.172 43.9157ZM42.3257 20.731C40.4435 20.731 38.9123 22.2605 38.9123 24.1405V32.3233C38.9123 34.2033 40.4435 35.7328 42.3257 35.7328H57.345C57.526 35.7328 57.6997 35.8047 57.8276 35.9325L63.4892 41.5875V36.4148C63.4892 36.0381 63.7948 35.7328 64.1719 35.7328C66.0541 35.7328 67.5853 34.2033 67.5853 32.3233V24.1405C67.5853 22.2605 66.0541 20.731 64.1719 20.731H42.3257Z" fill="#C47A2D"/>
<path d="M6.82558 27.5524C6.73765 27.5524 6.6489 27.5353 6.56439 27.5006C6.30933 27.395 6.14303 27.1463 6.14303 26.8705V20.6848C3.8302 20.3529 2.04688 18.3606 2.04688 15.9601V7.77722C2.04688 5.14522 4.19067 3.00391 6.82572 3.00391H28.6719C31.3069 3.00391 33.4507 5.14522 33.4507 7.77722V15.9601C33.4507 18.5921 31.3069 20.7334 28.6719 20.7334H13.9354L7.30838 27.3527C7.17785 27.4831 7.00322 27.5524 6.82558 27.5524ZM6.82572 4.36771C4.94354 4.36771 3.41226 5.89722 3.41226 7.77722V15.9601C3.41226 17.8401 4.94354 19.3696 6.82572 19.3696C7.2027 19.3696 7.50841 19.6749 7.50841 20.0515V25.2242L13.1698 19.5694C13.2979 19.4414 13.4716 19.3696 13.6526 19.3696H28.6719C30.5541 19.3696 32.0853 17.8401 32.0853 15.9601V7.77722C32.0853 5.89722 30.5541 4.36771 28.6719 4.36771H6.82572Z" fill="#C47A2D"/>
<path d="M27.3059 9.82279H8.1905C7.81352 9.82279 7.50781 9.51743 7.50781 9.14089C7.50781 8.76434 7.81352 8.45898 8.1905 8.45898H27.3059C27.6829 8.45898 27.9886 8.76434 27.9886 9.14089C27.9886 9.51743 27.6829 9.82279 27.3059 9.82279Z" fill="#C47A2D"/>
<path d="M27.3059 15.2779H8.1905C7.81352 15.2779 7.50781 14.9725 7.50781 14.596C7.50781 14.2194 7.81352 13.9141 8.1905 13.9141H27.3059C27.6829 13.9141 27.9886 14.2194 27.9886 14.596C27.9886 14.9725 27.6829 15.2779 27.3059 15.2779Z" fill="#C47A2D"/>
<path d="M62.8059 26.1861H43.6905C43.3134 26.1861 43.0078 25.8807 43.0078 25.5042C43.0078 25.1276 43.3134 24.8223 43.6905 24.8223H62.8059C63.183 24.8223 63.4886 25.1276 63.4886 25.5042C63.4886 25.8807 63.183 26.1861 62.8059 26.1861Z" fill="#C47A2D"/>
<path d="M62.8059 31.6411H43.6905C43.3134 31.6411 43.0078 31.3358 43.0078 30.9592C43.0078 30.5827 43.3134 30.2773 43.6905 30.2773H62.8059C63.183 30.2773 63.4886 30.5827 63.4886 30.9592C63.4886 31.3358 63.183 31.6411 62.8059 31.6411Z" fill="#C47A2D"/>
</svg>

<svg width="71" height="72" fill="none" xmlns="http://www.w3.org/2000/svg"><path d="M37.668 69.472a6.156 6.156 0 01-1.647-.225L13.469 62.99a.682.682 0 11.365-1.314l22.552 6.257c1.143.317 2.356.2 3.417-.33l26.41-13.19a2.463 2.463 0 001.371-2.215c0-.71-.29-1.364-.819-1.84a2.453 2.453 0 00-1.916-.624l-23.82 2.467a.682.682 0 11-.14-1.357l23.82-2.466a3.844 3.844 0 014.242 3.82 3.82 3.82 0 01-2.127 3.435l-26.41 13.19a6.147 6.147 0 01-2.746.649z" fill="#C47A2D"/><path d="M35.744 56.193c-.48 0-.966-.059-1.447-.179l-9.888-2.469a.682.682 0 11.331-1.323l9.889 2.47a4.522 4.522 0 003.9-.827 4.51 4.51 0 001.748-3.579 4.565 4.565 0 00-3.593-4.44l-13.525-2.894a4.79 4.79 0 00-2.513.139l-6.778 2.257a.683.683 0 01-.432-1.294l6.778-2.257a6.159 6.159 0 013.23-.179l13.526 2.895c2.707.58 4.672 3.008 4.672 5.773a5.865 5.865 0 01-2.273 4.654 5.877 5.877 0 01-3.625 1.253z" fill="#C47A2D"/><path d="M13.653 69.83H2.73a.682.682 0 01-.683-.681V39.144c0-.377.306-.682.683-.682h10.923c.377 0 .682.305.682.682v30.003a.682.682 0 01-.682.682zm-10.24-1.363h9.557v-28.64H3.412v28.64zm60.759-24.551a.683.683 0 01-.483-.2l-6.627-6.62H42.326a4.782 4.782 0 01-4.78-4.773V24.14a4.781 4.781 0 014.78-4.773h21.846a4.781 4.781 0 014.779 4.773v8.183c0 2.4-1.784 4.393-4.096 4.725v6.186a.682.682 0 01-.683.682zM42.326 20.73a3.415 3.415 0 00-3.414 3.41v8.182c0 1.88 1.532 3.41 3.414 3.41h15.019c.181 0 .355.072.483.2l5.661 5.654v-5.172c0-.377.306-.682.683-.682a3.415 3.415 0 003.413-3.41V24.14c0-1.88-1.53-3.409-3.413-3.409H42.326zm-35.5 6.822a.682.682 0 01-.683-.682v-6.185a4.783 4.783 0 01-4.096-4.725V7.777a4.782 4.782 0 014.779-4.773h21.846a4.781 4.781 0 014.779 4.773v8.183a4.781 4.781 0 01-4.78 4.773H13.936l-6.627 6.62c-.13.13-.305.2-.482.2zm0-23.184a3.415 3.415 0 00-3.414 3.41v8.182c0 1.88 1.532 3.41 3.414 3.41.377 0 .682.305.682.681v5.173l5.662-5.655a.683.683 0 01.483-.2h15.019a3.415 3.415 0 003.413-3.409V7.777c0-1.88-1.53-3.41-3.413-3.41H6.826z" fill="#C47A2D"/><path d="M27.306 9.823H8.19a.682.682 0 110-1.364h19.116a.682.682 0 110 1.364zm0 5.455H8.19a.682.682 0 110-1.364h19.116a.682.682 0 110 1.364zm35.5 10.908H43.69a.682.682 0 110-1.364h19.115a.682.682 0 110 1.364zm0 5.455H43.69a.682.682 0 110-1.364h19.115a.682.682 0 110 1.364z" fill="#C47A2D"/></svg>
